X: 53
T: No_149_One_Wind.krn
%%abc-version 2.0
%%abcx-abcm2ps-target-version 5.9.1 (29 Sep 2008)
%%abc-creator hum2abc beta
%%abcx-conversion-date 2020/08/10 18:54:57
%%gracespace 0 6 6
%%humdrum-veritas 3996848766
%%humdrum-veritas-data 3994673318
%%linebreak <none>
%%barnumbers 0
L: 1/8
M: 3/4
%%staves {1 2}
V: 1 clef=bass
V: 2 clef=bass
K: B
[V:1] [K:clef=bass][M:3/4]F4F3/D/ | 
[V:2] [K:clef=bass][M:3/4](3!accent!G,, z G,, (3!accent!G,, z G,, (3!accent!G,, z G,, | 
[V:1] F2D2D2 | 
[V:2] z6 | 
[V:1] F4D/D/C/B,/ ||  
[V:2] z6 ||  
[V:1] [M:2/4]D>CB,2 | 
[V:2] [M:2/4]z4 | 
[V:1] FF DD | 
[V:2] z4 | 
[V:1] B,/B,/G,/F,< B,G,/ ||  
[V:2] z4 ||  
[V:1] [M:3/4]F,F, F,F,F,2 | 
[V:2] [M:3/4]z6 | 
[V:1] B,B, B,>B, F,3/D,/ | 
[V:2] z6 | 
[V:1] F,2D,2D,2 | 
[V:2] z6 | 
[V:1] F,4F,3/D,/ ||  
[V:2] z6 ||  
[V:1] [M:2/4]F,2D,2 | 
[V:2] [M:2/4]z4 | 
[V:1] D,3D, ||  
[V:2] z4 ||  
[V:1] [M:3/4]D,4z2 | 
[V:2] [M:3/4]z6 | 
[V:1] B,D (3:2:1DD(3:2:4F/ DCB, ||  
[V:2] z6 ||  
[V:1] [M:2/4]D>CB,2 | 
[V:2] [M:2/4]z4 | 
[V:1] B,F DD | 
[V:2] z4 | 
[V:1] B,/B,/G,/F,< B,G,/ ||  
[V:2] z4 ||  
[V:1] [M:3/4]F,F, F,F,F,2 | 
[V:2] [M:3/4]z6 | 
[V:1] B,B, B,>B, F,3/D,/ | 
[V:2] z6 | 
[V:1] F,2D,2D,2 | 
[V:2] z6 | 
[V:1] F,4F,3/D,/ ||  
[V:2] z6 ||  
[V:1] [M:2/4]F,2D,2 | 
[V:2] [M:2/4]z4 | 
[V:1] D,3D, | 
[V:2] z4 | 
[V:1] D,4 |]  
[V:2] z4 |]  


